qt_app/Moto_HMI_UI/Moto_HMI_UIContent/images/lowBeam.svg

<svg width="72" height="51" viewBox="0 0 72 51" fill="none" xmlns="http://www.w3.org/2000/svg">
<path d="M40.3166 4.40073C38.22 4.40073 36.3181 5.65495 35.6741 7.45232C33.9969 12.1845 33.1433 17.2278 33.1433 22.4418C33.1433 27.6559 33.9969 32.6993 35.6741 37.4315C36.3181 39.2289 38.22 40.4831 40.3166 40.4831C40.691 40.4771 40.9756 40.4516 41.3051 40.3917C56.6702 37.5019 66.9884 30.2868 66.9884 22.4418C66.9884 14.5953 56.6702 7.38344 41.3051 4.49207C40.9756 4.43071 40.6461 4.40073 40.3166 4.40073ZM40.3166 44.6106C36.4529 44.6091 33.0235 42.2819 31.7955 38.8158C29.9385 33.6377 29.0099 28.1288 29.0099 22.4418C29.0099 16.7549 29.9385 11.246 31.7955 6.06639C33.0235 2.60183 36.4529 0.273178 40.3166 0.273178C40.9007 0.273178 41.4847 0.328528 42.0688 0.436282C59.7102 3.75717 71.1067 12.3954 71.1067 22.4418C71.1067 32.4898 59.7102 41.1265 42.0688 44.4474C41.4847 44.5551 40.9007 44.6106 40.3166 44.6106Z" fill="#FCCA10"/>
<path d="M2.75737 13.8365L1.76903 10.6848L28.1412 2.43717L29.1146 5.58903L2.75737 13.8365Z" fill="#FCCA10"/>
<path d="M1.51464 23.3278L0.526297 20.1776L25.1912 12.4628L26.1797 15.613L1.51464 23.3278Z" fill="#FCCA10"/>
<path d="M1.09524 32.5643L0.10675 29.4124L24.2627 21.8533L25.251 25.0051L1.09524 32.5643Z" fill="#FCCA10"/>
<path d="M1.48447 41.5437L0.496134 38.3934L25.236 30.6547L26.2244 33.8049L1.48447 41.5437Z" fill="#FCCA10"/>
<path d="M2.68278 50.2732L1.69445 47.1213L28.2314 38.8199L29.2198 41.9701L2.68278 50.2732Z" fill="#FCCA10"/>
</svg>

<?xml version="1.0" encoding="UTF-8"?>
<svg id="Layer_1" xmlns="http://www.w3.org/2000/svg" version="1.1" viewBox="0 0 72 51">
  <!-- Generator: Adobe Illustrator 29.8.1, SVG Export Plug-In . SVG Version: 2.1.1 Build 2)  -->
  <defs>
    <style>
      .st0 {
        fill: #41de1a;
      }
    </style>
  </defs>
  <path class="st0" d="M40.32,4.4c-2.1,0-4,1.25-4.64,3.05-1.68,4.73-2.53,9.78-2.53,14.99s.85,10.26,2.53,14.99c.64,1.8,2.55,3.05,4.64,3.05.37,0,.66-.03.99-.09,15.37-2.89,25.68-10.1,25.68-17.95s-10.32-15.06-25.68-17.95c-.33-.06-.66-.09-.99-.09ZM40.32,44.61c-3.86,0-7.29-2.33-8.52-5.79-1.86-5.18-2.79-10.69-2.79-16.37s.93-11.2,2.79-16.38c1.23-3.46,4.66-5.79,8.52-5.79.58,0,1.17.06,1.75.16,17.64,3.32,29.04,11.96,29.04,22.01s-11.4,18.68-29.04,22.01c-.58.11-1.17.16-1.75.16Z"/>
  <path class="st0" d="M2.76,13.84l-.99-3.15L28.14,2.44l.97,3.15L2.76,13.84Z"/>
  <path class="st0" d="M1.51,23.33l-.99-3.15,24.66-7.71.99,3.15L1.51,23.33Z"/>
  <path class="st0" d="M1.1,32.56l-.99-3.15,24.16-7.56.99,3.15L1.1,32.56Z"/>
  <path class="st0" d="M1.48,41.54l-.99-3.15,24.74-7.74.99,3.15L1.48,41.54Z"/>
  <path class="st0" d="M2.68,50.27l-.99-3.15,26.54-8.3.99,3.15L2.68,50.27Z"/>
</svg>
